resources/svg/nights-stay-tt.svg

<svg xmlns="http://www.w3.org/2000/svg" enable-background="new 0 0 24 24" viewBox="0 0 24 24" fill="currentColor"><g><rect fill="none" height="24" width="24"/></g><g><g><path d="M8.1 14.15c1.67.48 2.9 2.02 2.9 3.85 0 .68-.19 1.31-.48 1.87.48.09.97.14 1.48.14 1.48 0 2.9-.41 4.13-1.15-2.62-.92-5.23-2.82-6.8-5.86-1.59-3.06-1.55-5.91-1.04-8.1-2.57 1.33-4.3 4.01-4.3 7.1h.02c1.65 0 3.17.83 4.09 2.15z" opacity=".3"/><path d="M19.78 17.51c-2.47 0-6.57-1.33-8.68-5.43-2.33-4.51-.5-8.48.53-10.07C6.27 2.2 1.98 6.59 1.98 12c0 .14.02.28.02.42.61-.26 1.28-.42 1.98-.42 0-3.09 1.73-5.77 4.3-7.1-.5 2.19-.54 5.04 1.04 8.1 1.57 3.04 4.18 4.95 6.8 5.86-1.23.74-2.65 1.15-4.13 1.15-.5 0-1-.05-1.48-.14-.37.7-.94 1.27-1.64 1.64.98.32 2.03.5 3.11.5 3.5 0 6.58-1.8 8.37-4.52-.17.01-.37.02-.57.02z"/><path d="M7 16h-.18C6.4 14.84 5.3 14 4 14c-1.66 0-3 1.34-3 3s1.34 3 3 3h3c1.1 0 2-.9 2-2s-.9-2-2-2z"/></g></g></svg>

<svg xmlns="http://www.w3.org/2000/svg" enable-background="new 0 0 24 24" viewBox="0 0 24 24" fill="currentColor"><g><rect fill="none" height="24" width="24"/></g><g><g><path d="M8.1,14.15C9.77,14.63,11,16.17,11,18c0,0.68-0.19,1.31-0.48,1.87c0.48,0.09,0.97,0.14,1.48,0.14 c1.48,0,2.9-0.41,4.13-1.15c-2.62-0.92-5.23-2.82-6.8-5.86C7.74,9.94,7.78,7.09,8.29,4.9c-2.57,1.33-4.3,4.01-4.3,7.1c0,0,0,0,0,0 c0.01,0,0.01,0,0.02,0C5.66,12,7.18,12.83,8.1,14.15z" opacity=".3"/><path d="M19.78,17.51c-2.47,0-6.57-1.33-8.68-5.43C8.77,7.57,10.6,3.6,11.63,2.01C6.27,2.2,1.98,6.59,1.98,12 c0,0.14,0.02,0.28,0.02,0.42C2.61,12.16,3.28,12,3.98,12c0,0,0,0,0,0c0-3.09,1.73-5.77,4.3-7.1C7.78,7.09,7.74,9.94,9.32,13 c1.57,3.04,4.18,4.95,6.8,5.86c-1.23,0.74-2.65,1.15-4.13,1.15c-0.5,0-1-0.05-1.48-0.14c-0.37,0.7-0.94,1.27-1.64,1.64 c0.98,0.32,2.03,0.5,3.11,0.5c3.5,0,6.58-1.8,8.37-4.52C20.18,17.5,19.98,17.51,19.78,17.51z"/><path d="M7,16l-0.18,0C6.4,14.84,5.3,14,4,14c-1.66,0-3,1.34-3,3s1.34,3,3,3c0.62,0,2.49,0,3,0c1.1,0,2-0.9,2-2 C9,16.9,8.1,16,7,16z"/></g></g></svg>
